src/icons/quote.svg

<svg xmlns="http://www.w3.org/2000/svg" width="90" height="90" viewBox="5 5 90 90"><path d="M50 95c24.8 0 45-20.1 45-45C95 25.2 74.8 5 50 5 25.1 5 5 25.2 5 50c0 24.9 20.1 45 45 45zm14.5-63.8c6.7-1.1 13.9 2.6 15.6 11.9 1.801 13.3-8 24.4-22.5 26-.5.1-.6-.4-.6-.4l-.7-4.1s-.1-.5.4-.6c4.2-1.3 7.7-3.3 9-8.5-5.7-.3-10.6-4.5-11.6-10.4-.8-6.7 3.7-12.9 10.4-13.9zm-34.5 0c6.7-1.1 13.9 2.6 15.7 11.9 1.7 13.3-8 24.4-22.5 26-.5.1-.6-.4-.6-.4l-.7-4.1s-.1-.5.4-.6c4.2-1.3 7.7-3.3 9.1-8.5-5.7-.3-10.6-4.5-11.6-10.4-1.1-6.7 3.5-12.9 10.2-13.9z"/></svg>

<?xml version="1.0" encoding="utf-8"?>
<!-- Generator: Adobe Illustrator 14.0.0, SVG Export Plug-In . SVG Version: 6.00 Build 43363)  -->
<!DOCTYPE svg PUBLIC "-//W3C//DTD SVG 1.1//EN" "http://www.w3.org/Graphics/SVG/1.1/DTD/svg11.dtd">
<svg version="1.1" id="Layer_1" xmlns="http://www.w3.org/2000/svg" xmlns:xlink="http://www.w3.org/1999/xlink" x="0px" y="0px"
	 width="90px" height="90px" viewBox="5 5 90 90" enable-background="new 5 5 90 90" xml:space="preserve">
<path d="M50,95c24.8,0,45-20.1,45-45C95,25.2,74.8,5,50,5C25.1,5,5,25.2,5,50C5,74.9,25.1,95,50,95L50,95z M64.5,31.2
	c6.7-1.1,13.9,2.6,15.6,11.9c1.801,13.3-8,24.4-22.5,26C57.1,69.2,57,68.7,57,68.7L56.3,64.6c0,0-0.1-0.5,0.4-0.6
	c4.2-1.3,7.7-3.3,9-8.5C60,55.2,55.1,51,54.1,45.1C53.3,38.4,57.8,32.2,64.5,31.2L64.5,31.2z M30,31.2c6.7-1.1,13.9,2.6,15.7,11.9
	c1.7,13.3-8,24.4-22.5,26C22.7,69.2,22.6,68.7,22.6,68.7L21.9,64.6c0,0-0.1-0.5,0.4-0.6c4.2-1.3,7.7-3.3,9.1-8.5
	c-5.7-0.3-10.6-4.5-11.6-10.4C18.7,38.4,23.3,32.2,30,31.2z"/>
</svg>
